icons/lines/bootsrap.svg

<svg xmlns="http://www.w3.org/2000/svg" width="24" height="24" viewBox="0 0 24 24" fill="none" stroke="currentColor" stroke-width="2" stroke-linecap="round" stroke-linejoin="round" >
  <path d="M17 3H7C5.3 3 4 4.3 4 6V6.8C4 7.6 3.9 8.3 3.6 9.1C3.3 10.2 2.2 11 1 11V13C2.2 13 3.3 13.8 3.6 14.9C3.9 15.6 4 16.4 4 17.2V18C4 19.7 5.3 21 7 21H17C18.7 21 20 19.7 20 18V17.2C20 16.4 20.1 15.7 20.4 14.9C20.8 13.8 21.8 13 23 13V11C21.8 11 20.7 10.2 20.4 9.1C20.1 8.4 20 7.6 20 6.8V6C20 4.3 18.7 3 17 3Z" stroke-miterlimit="10"/>
  <path d="M9.7998 12H12.6998C13.8998 12 14.7998 12.9 14.7998 14.1C14.7998 15.3 13.8998 16.2 12.6998 16.2H9.7998V7.79999H12.6998C13.8998 7.79999 14.7998 8.69999 14.7998 9.89999C14.7998 11.1 13.8998 12 12.6998 12H9.7998Z" stroke-miterlimit="10"/>
  </svg>

<svg xmlns="http://www.w3.org/2000/svg" width="24" height="24" viewBox="0 0 24 24" fill="none" stroke="currentColor" stroke-width="2" stroke-linecap="round" stroke-linejoin="round">
  <path d="M12.7 12c1.2 0 2.1.9 2.1 2.1s-.9 2.1-2.1 2.1H9.8V7.8h2.9c1.2 0 2.1.9 2.1 2.1s-.9 2.1-2.1 2.1" />
  <path d="M12.7 12H9.8" />
  <path d="M7 3C5.3 3 4 4.3 4 6v.8a6.2 6.2 0 0 1-.4 2.3C3.3 10.2 2.2 11 1 11v2c1.2 0 2.3.8 2.6 1.9.3.7.4 1.5.4 2.3v.8c0 1.7 1.3 3 3 3h10c1.7 0 3-1.3 3-3v-.8a6.2 6.2 0 0 1 .4-2.3c.4-1.1 1.4-1.9 2.6-1.9v-2c-1.2 0-2.3-.8-2.6-1.9-.3-.7-.4-1.5-.4-2.3V6c0-1.7-1.3-3-3-3z" />
</svg>
